X:1
T:In the Child Garden
T:In the Child Garden
T:Florence W. Williams
T:Julia Harriet Johnston, ca. 1908
T:Public Domain Courtesy of the Cyber Hymnal™
C:Florence W. Williams
Z:Public Domain
Z:Courtesy of the Cyber Hymnal™
%%score ( 1 2 ) 3
L:1/8
Q:1/4=100
M:3/4
K:G
V:1 treble 
V:2 treble 
V:3 bass 
V:1
 [B,DG]>[B,DA] | [CDG]2 [CDF]2 [CDFA]>[DFB] | [CDFA]2 [B,DG]2 (B[Gc]) | [DFB]2 [CDFA]3 [DFB] | %4
w: 1.~In the|gar- den, in the|gar- den of *|Je- sus our|
w: 2.~Lit- tle|child- ren, lit- tle|child- ren are~the *|flow’rs in His|
w: 3.~Je- sus|loves us, Je- sus|loves us, the *|flow’rs of His|
w: 4.~We must|love Him, we must|love Him, this *|Je- sus our|
 [CDFA]2 [B,DG]2 [B,DG]>[B,DA] | [CDG]2 [CDF]2 [CDFA]>[DFB] | [CDFA]2 [B,DG]2 [B,DF]2 | %7
w: Sav- ior, We are|grow- ing, we are|grow- ing for|
w: gar- den, We must|blos- som, we must|blos- som, for|
w: gar- den; He will|keep us, He will|keep us, nor|
w: Sav- ior, We must|trust Him, we must|trust Him, in|
 [^CE]2 [CE]2 [CA]2 | [DA]4 ||"^Refrain" !fermata![Fd]>[Ec] | [DB]2 [CA]3 [DB] | %11
w: Je- sus a-|lone.|||
w: Je- sus a-|lone.|||
w: leave us a-|lone.|Like the|flow’rs of the|
w: Je- sus a-|lone.|||
 [CA]2 [B,G]2 [B,A]2 | [CG]2 [CF]3 [CE] | [B,D]2 [B,G]2 [Fd]>[Ec] | [DB]2 [CA]3 [DB] | %15
w: ||||
w: ||||
w: morn- ing His|gar- den a-|dorn- ing, We are|grow- ing for|
w: ||||
 [CA]2 [B,G]2 [B,D]2 | [CE]2 [CD]2 [CA]2 | [B,G]6 |] %18
w: |||
w: |||
w: Je- sus, His|loved and His|own.|
w: |||
V:2
 x2 | x6 | x4 [DG]2 | x6 | x6 | x6 | x6 | x6 | x4 || x2 | x6 | x6 | x6 | x6 | x6 | x6 | x6 | x6 |] %18
V:3
 z2 | D,,D,A,D,F,D, | G,,D,G,D,G,D, | D,,D,F,D,F,D, | G,,D,G,D,G,D, | D,,D,A,D,F,D, | %6
 G,,D,G,D,G,D, | A,, E,G,E,G,E, | [D,F,]4 || z2 | D,,D,F,D,F,D, | G,,D,G,D,G,D, | D,,D,A,D,F,D, | %13
 G,,D,G,D,G,D, | D,,D,F,D,F,D, | G,,D,G,D,G,D, | D,,D,F,D,F,D, | [G,,D,G,]6 |] %18

